X: 10
T: The Girl I Left Behind Me
R: polka
M: 2/4
L: 1/8
K: Gmaj
|: B/d/ |ed BG | B/A/G EF | G>F GB | d2 dB/d/ |
ed BG | AG EG | F/G/A EF | G2- G :|
|: A |B/c/d ef | gd BG | B/c/d ef | g2 fg/f/ |
ed BG | B/A/G EG | F/G/A EF | G2 G :|


Tune 5418	Setting 26213

